src/images/svg/binary-to-deriv/favorite-icon.svg

<svg width="48" height="48" fill="none" xmlns="http://www.w3.org/2000/svg"><rect width="48" height="48" rx="8" fill="#7862AA"/><path fill-rule="evenodd" clip-rule="evenodd" d="M22 25h-6c-.55 0-1-.45-1-1v-8c0-.55.45-1 1-1h6c.55 0 1 .45 1 1v8c0 .55-.45 1-1 1zm0 8h-6c-.55 0-1-.45-1-1v-4c0-.55.45-1 1-1h6c.55 0 1 .45 1 1v4c0 .55-.45 1-1 1zm4 0h6c.55 0 1-.45 1-1v-8c0-.55-.45-1-1-1h-6c-.55 0-1 .45-1 1v8c0 .55.45 1 1 1zm-1-13v-4c0-.55.45-1 1-1h6c.55 0 1 .45 1 1v4c0 .55-.45 1-1 1h-6c-.55 0-1-.45-1-1z" fill="#fff"/></svg>

<svg width="48" height="48" viewBox="0 0 48 48" fill="none" xmlns="http://www.w3.org/2000/svg">
<rect width="48" height="48" rx="8" fill="#7862AA"/>
<path fill-rule="evenodd" clip-rule="evenodd" d="M22 25H16C15.45 25 15 24.55 15 24V16C15 15.45 15.45 15 16 15H22C22.55 15 23 15.45 23 16V24C23 24.55 22.55 25 22 25ZM22 33H16C15.45 33 15 32.55 15 32V28C15 27.45 15.45 27 16 27H22C22.55 27 23 27.45 23 28V32C23 32.55 22.55 33 22 33ZM26 33H32C32.55 33 33 32.55 33 32V24C33 23.45 32.55 23 32 23H26C25.45 23 25 23.45 25 24V32C25 32.55 25.45 33 26 33ZM25 20V16C25 15.45 25.45 15 26 15H32C32.55 15 33 15.45 33 16V20C33 20.55 32.55 21 32 21H26C25.45 21 25 20.55 25 20Z" fill="white"/>
</svg>
